**kern	**kern	**dynam
*part1	*part1	*part1
*staff2	*staff1	*
*I"Piano	*	*
*clefF4	*clefG2	*
*k[f#c#g#d#]	*k[f#c#g#d#]	*
=1	=1	=1
*^	*	*
4BB	2EE	2G#) 2e 2g#	.
4BB	.	.	.
*v	*v	*	*
*	*clefF4	*
=	=	=
4DD# 4D#	2G# 2B#X	.
4GG#	.	.
=	=	=
*	*^	*
2CC# 2C#	4E 4G# 4c#	4ryy	.
.	4E 4c#	8AL	.
.	.	8G#J	.
*	*v	*v	*
=	=	=
*^	*	*
!	!	!LO:TX:b:i:t=cresc.	!
4GG#	2CC#	2D# 2F# 2B#X	.
4GG#	.	.	.
=	=	=	=
4AA	4.CC#	4E 4A 4c#	<
8GG#L	.	4E 4G# 4c#	[ >
[8CC#J	8CC#	.	.
*v	*v	*	*
*	*clefG2	*
=	=	=
2CC#_ 2C#	4B 4e#X 4a	]
.	8BL 8e# 8g#	.
.	8BJ 8e#	.
=	=	=
*^	*	*
4Dn	4.CC#]	4B 4e#X 4g#	.
8C#L	.	4B 4e# 4g#	.
[8C#J	8C#	.	.
*v	*v	*	*
=	=	=
*-	*-	*-
!!!system-decoration: {(s1,s2)}
